img/industries.svg

<svg width="128pt" height="128pt" viewBox="0 0 128 128" xmlns="http://www.w3.org/2000/svg"><g fill="#fff"><path d="M30.98 9.99C43.96 1.97 59.9-.99 74.91 1.64c14.18 2.37 27.37 9.84 36.86 20.62 10.34 11.62 16.2 27.19 15.82 42.76.09 18.08-8.36 35.85-22.07 47.56-10.53 9.22-24.19 14.41-38.08 15.42h-6.61c-6.67-.64-13.36-1.75-19.6-4.29-16.87-6.36-30.66-20.33-36.84-37.25-5.1-13.63-5.27-29.04-.53-42.79C8.61 29.74 18.38 17.6 30.98 9.99m23.54-4.31C37.86 8.33 22.6 18.47 13.73 32.81 6.17 44.66 3.23 59.27 5.31 73.15 7.92 91.5 19.78 108.2 36.2 116.79c11.81 6.38 25.82 8.32 38.99 5.88 14.25-2.65 27.36-10.81 36.1-22.37 10.63-13.79 14.71-32.41 10.63-49.35-3.41-15.05-13.01-28.55-26.06-36.77-12.12-7.8-27.14-10.8-41.34-8.5z"/><path d="M39.17 41.17c4-6.65 12.64-9 19.88-7.15 8.32 1.36 14.83 7.27 22.79 9.59 5.97 1.86 12.37-.02 17.36-3.48-2.51 6.34-9.63 9.94-16.27 8.78-10.59-1.13-18.43-9.9-29.01-11.07-4.95-.73-9.89 1.46-13.25 5.04-.37-.43-1.12-1.28-1.5-1.71zm-5.78 4.15c3.82-.01 7.64 0 11.46-.01.02 6.5 0 13 .01 19.51 5.22-2.75 10.36-5.62 15.53-8.44.04 3.48.02 6.96.04 10.44 5.16-3.49 10.32-6.98 15.49-10.45.03 3.52.02 7.04.02 10.56 5.24-3.47 10.4-7.05 15.63-10.54.06 11.9-.01 23.8.04 35.69 1.61.03 3.22.05 4.83.12l-.12 2.4c-11.93-.14-23.88.23-35.79-.21-10.49.46-21.01.04-31.52.22v-2.17h4.38c.01-15.71-.01-31.41 0-47.12z"/></g></svg>

<?xml version="1.0" encoding="UTF-8" ?>
<!DOCTYPE svg PUBLIC "-//W3C//DTD SVG 1.1//EN" "http://www.w3.org/Graphics/SVG/1.1/DTD/svg11.dtd">
<svg width="128pt" height="128pt" viewBox="0 0 128 128" version="1.1" xmlns="http://www.w3.org/2000/svg">
<g id="#ffffffff">
<path fill="#ffffff" opacity="1.00" d=" M 30.98 9.99 C 43.96 1.97 59.90 -0.99 74.91 1.64 C 89.09 4.01 102.28 11.48 111.77 22.26 C 122.11 33.88 127.97 49.45 127.59 65.02 C 127.68 83.10 119.23 100.87 105.52 112.58 C 94.99 121.80 81.33 126.99 67.44 128.00 L 60.83 128.00 C 54.16 127.36 47.47 126.25 41.23 123.71 C 24.36 117.35 10.57 103.38 4.39 86.46 C -0.71 72.83 -0.88 57.42 3.86 43.67 C 8.61 29.74 18.38 17.60 30.98 9.99 M 54.52 5.68 C 37.86 8.33 22.60 18.47 13.73 32.81 C 6.17 44.66 3.23 59.27 5.31 73.15 C 7.92 91.50 19.78 108.20 36.20 116.79 C 48.01 123.17 62.02 125.11 75.19 122.67 C 89.44 120.02 102.55 111.86 111.29 100.30 C 121.92 86.51 126.00 67.89 121.92 50.95 C 118.51 35.90 108.91 22.40 95.86 14.18 C 83.74 6.38 68.72 3.38 54.52 5.68 Z" />
<path fill="#ffffff" opacity="1.00" d=" M 39.17 41.17 C 43.17 34.52 51.81 32.17 59.05 34.02 C 67.37 35.38 73.88 41.29 81.84 43.61 C 87.81 45.47 94.21 43.59 99.20 40.13 C 96.69 46.47 89.57 50.07 82.93 48.91 C 72.34 47.78 64.50 39.01 53.92 37.84 C 48.97 37.11 44.03 39.30 40.67 42.88 C 40.30 42.45 39.55 41.60 39.17 41.17 Z" />
<path fill="#ffffff" opacity="1.00" d=" M 33.39 45.32 C 37.21 45.31 41.03 45.32 44.85 45.31 C 44.87 51.81 44.85 58.31 44.86 64.82 C 50.08 62.07 55.22 59.20 60.39 56.38 C 60.43 59.86 60.41 63.34 60.43 66.82 C 65.59 63.33 70.75 59.84 75.92 56.37 C 75.95 59.89 75.94 63.41 75.94 66.93 C 81.18 63.46 86.34 59.88 91.57 56.39 C 91.63 68.29 91.56 80.19 91.61 92.08 C 93.22 92.11 94.83 92.13 96.44 92.20 C 96.41 92.80 96.35 94.00 96.32 94.60 C 84.39 94.46 72.44 94.83 60.53 94.39 C 50.04 94.85 39.52 94.43 29.01 94.61 C 29.01 94.07 29.01 92.98 29.01 92.44 C 30.47 92.44 31.93 92.44 33.39 92.44 C 33.40 76.73 33.38 61.03 33.39 45.32 Z" />
</g>
</svg>
